X: 35852
T: Same Old Tale That The Crow Told Me, The
R: polka
M: 2/4
K: Cmajor
|:CE GG|A/G/A G2|CE GE|D/E/D C2|
CE GG|A/G/A G2|CE GE|D/E/D C2:|
|:cc/c/ cG|A/G/A G2|CE GE|D/E/D E2|
cc/c/ cG|A/G/A G2|CE GE|D/E/D C2:|

